X:1
T:Maidstone Hall
T:Maidstone Hall
T:Bishop 1788
C:Bishop 1788
L:1/8
Q:3/8=100
M:6/8
K:A
V:1 treble 
V:1
 c/d/ |"A" ecA"D" afd |"A" c2 A- A2 c/A/ |"Bm" F B2- BdB |"E" G2 E-"E7" E2 c/d/ |"A" ecA"D" afd | %6
"A" c2 A- A2 c/A/ |"Bm" FdB"E7" Gec |"A" A2 A, A,2 :: G/A/ |"E" B2 E- E2 d/B/ |"A" c2 A- A2 e/c/ | %12
"E7" dbd"A" cac |"E" B2 E- E2 e |"D" f2 D-"Bm" D2 f/a/ |"E" g2 E-"E7" E2 g/b/ |"A" aec"E7" dBG | %17
"A" A2 A, A,2 :| %18

